X:1
T: 69th Street Polka
T: the Galway Belle
O: Ireland
M: 2/4
L: 1/8
Z: Jessica Spengler <jds@BLUEWIN.DE>
R: Polka
K: Am
|: AB cd | ea e2 | dB G2 | AB GE | AB cd | ea e2 | dB GB | A2 A2 :|
|  a2 e2 | aa e2 | dB G2 | AB GE | a2 e2 | aa e2 | dB GB | A2 A2 |
|  a2 e2 | aa e2 | dB G2 | AB GE | AB cd | ea e2 | dB GB | A2 A2 |]
